mimes/48/package.svg

<?xml version="1.0" encoding="UTF-8" standalone="no"?>
<svg
   xmlns:dc="http://purl.org/dc/elements/1.1/"
   xmlns:cc="http://creativecommons.org/ns#"
   xmlns:rdf="http://www.w3.org/1999/02/22-rdf-syntax-ns#"
   xmlns:svg="http://www.w3.org/2000/svg"
   xmlns="http://www.w3.org/2000/svg"
   xmlns:xlink="http://www.w3.org/1999/xlink"
   version="1.1"
   width="48"
   height="48"
   id="svg3996">
  <defs
     id="defs3998">
    <linearGradient
       x1="23.99999"
       y1="7.3472824"
       x2="23.99999"
       y2="43"
       id="linearGradient3855"
       xlink:href="#linearGradient3878"
       gradientUnits="userSpaceOnUse"
       gradientTransform="matrix(1.0540541,0,0,0.21621621,-1.2972909,8.310813)" />
    <linearGradient
       id="linearGradient3878">
      <stop
         id="stop3880"
         style="stop-color:#ffffff;stop-opacity:1"
         offset="0" />
      <stop
         id="stop3882"
         style="stop-color:#ffffff;stop-opacity:0.23529412"
         offset="0.08389385" />
      <stop
         id="stop3884"
         style="stop-color:#ffffff;stop-opacity:0.15686275"
         offset="0.95056331" />
      <stop
         id="stop3886"
         style="stop-color:#ffffff;stop-opacity:0.39215687"
         offset="1" />
    </linearGradient>
    <linearGradient
       x1="23.99999"
       y1="5.5641499"
       x2="23.99999"
       y2="43"
       id="linearGradient3033"
       xlink:href="#linearGradient3977"
       gradientUnits="userSpaceOnUse"
       gradientTransform="matrix(1.0540541,0,0,0.7027027,-1.2972909,13.635141)" />
    <linearGradient
       id="linearGradient3977">
      <stop
         id="stop3979"
         style="stop-color:#ffffff;stop-opacity:1"
         offset="0" />
      <stop
         id="stop3981"
         style="stop-color:#ffffff;stop-opacity:0.23529412"
         offset="0.03626217" />
      <stop
         id="stop3983"
         style="stop-color:#ffffff;stop-opacity:0.15686275"
         offset="0.95056331" />
      <stop
         id="stop3985"
         style="stop-color:#ffffff;stop-opacity:0.39215687"
         offset="1" />
    </linearGradient>
    <linearGradient
       x1="26"
       y1="22"
       x2="26"
       y2="8"
       id="linearGradient3397"
       xlink:href="#linearGradient3827"
       gradientUnits="userSpaceOnUse" />
    <linearGradient
       id="linearGradient3827">
      <stop
         id="stop3829"
         style="stop-color:#ffffff;stop-opacity:1"
         offset="0" />
      <stop
         id="stop4295"
         style="stop-color:#ffffff;stop-opacity:1"
         offset="0.3021296" />
      <stop
         id="stop4293"
         style="stop-color:#ffffff;stop-opacity:0.64347827"
         offset="0.34361121" />
      <stop
         id="stop3832"
         style="stop-color:#ffffff;stop-opacity:0.39130434"
         offset="1" />
    </linearGradient>
    <linearGradient
       x1="23.451576"
       y1="30.554907"
       x2="43.00663"
       y2="45.934479"
       id="linearGradient3400"
       xlink:href="#linearGradient4559"
       gradientUnits="userSpaceOnUse"
       gradientTransform="matrix(1.2822251,0,0,1.1746872,-6.0701918,-5.303168)" />
    <linearGradient
       id="linearGradient4559">
      <stop
         id="stop4561"
         style="stop-color:#ffffff;stop-opacity:0"
         offset="0" />
      <stop
         id="stop4563"
         style="stop-color:#ffffff;stop-opacity:0"
         offset="1" />
    </linearGradient>
    <linearGradient
       x1="24.822832"
       y1="15.377745"
       x2="24.996943"
       y2="37.27668"
       id="linearGradient3406"
       xlink:href="#linearGradient3199"
       gradientUnits="userSpaceOnUse"
       gradientTransform="matrix(1.2822251,0,0,1.5572619,-6.0701918,-15.290756)" />
    <linearGradient
       id="linearGradient3199">
      <stop
         id="stop3201"
         style="stop-color:#dac196;stop-opacity:1"
         offset="0" />
      <stop
         id="stop3203"
         style="stop-color:#c7ae8e;stop-opacity:1"
         offset="0.23942046" />
      <stop
         id="stop3205"
         style="stop-color:#dac197;stop-opacity:1"
         offset="0.27582464" />
      <stop
         id="stop3207"
         style="stop-color:#b19974;stop-opacity:1"
         offset="1" />
    </linearGradient>
    <linearGradient
       x1="15.464298"
       y1="7.9756851"
       x2="15.464298"
       y2="45.04248"
       id="linearGradient3408"
       xlink:href="#linearGradient3295"
       gradientUnits="userSpaceOnUse" />
    <linearGradient
       id="linearGradient3295">
      <stop
         id="stop3297"
         style="stop-color:#c9af8b;stop-opacity:1"
         offset="0" />
      <stop
         id="stop3299"
         style="stop-color:#ad8757;stop-opacity:1"
         offset="0.23942046" />
      <stop
         id="stop3301"
         style="stop-color:#c2a57f;stop-opacity:1"
         offset="0.27582464" />
      <stop
         id="stop3303"
         style="stop-color:#9d7d53;stop-opacity:1"
         offset="1" />
    </linearGradient>
    <radialGradient
       cx="5"
       cy="41.5"
       r="5"
       fx="5"
       fy="41.5"
       id="radialGradient3917"
       xlink:href="#linearGradient3681"
       gradientUnits="userSpaceOnUse"
       gradientTransform="matrix(0.40120499,0,0,1.1999999,41.993979,-91.8)" />
    <linearGradient
       id="linearGradient3681">
      <stop
         id="stop3683"
         style="stop-color:#000000;stop-opacity:1"
         offset="0" />
      <stop
         id="stop3685"
         style="stop-color:#000000;stop-opacity:0"
         offset="1" />
    </linearGradient>
    <linearGradient
       x1="17.554192"
       y1="46.000275"
       x2="17.554192"
       y2="34.999718"
       id="linearGradient3920"
       xlink:href="#linearGradient3703"
       gradientUnits="userSpaceOnUse"
       gradientTransform="matrix(1.744139,0,0,1.090909,-16.929666,-2.181819)" />
    <linearGradient
       id="linearGradient3703">
      <stop
         id="stop3705"
         style="stop-color:#000000;stop-opacity:0"
         offset="0" />
      <stop
         id="stop3711"
         style="stop-color:#000000;stop-opacity:1"
         offset="0.5" />
      <stop
         id="stop3707"
         style="stop-color:#000000;stop-opacity:0"
         offset="1" />
    </linearGradient>
    <radialGradient
       cx="5"
       cy="41.5"
       r="5"
       fx="5"
       fy="41.5"
       id="radialGradient3994"
       xlink:href="#linearGradient3681"
       gradientUnits="userSpaceOnUse"
       gradientTransform="matrix(0.40120499,0,0,1.1999999,-6.0060239,-91.8)" />
  </defs>
  <metadata
     id="metadata4001">
    <rdf:RDF>
      <cc:Work
         rdf:about="">
        <dc:format>image/svg+xml</dc:format>
        <dc:type
           rdf:resource="http://purl.org/dc/dcmitype/StillImage" />
        <dc:title />
      </cc:Work>
    </rdf:RDF>
  </metadata>
  <g
     id="layer1">
    <rect
       width="2"
       height="12"
       x="-4"
       y="-48"
       transform="scale(-1,-1)"
       id="rect2484"
       style="opacity:0.4;fill:url(#radialGradient3994);fill-opacity:1;stroke:none" />
    <rect
       width="40.115192"
       height="12"
       x="4"
       y="36"
       id="rect2486"
       style="opacity:0.4;fill:url(#linearGradient3920);fill-opacity:1;stroke:none" />
    <rect
       width="2"
       height="12"
       x="44"
       y="-48"
       transform="scale(1,-1)"
       id="rect3444"
       style="opacity:0.4;fill:url(#radialGradient3917);fill-opacity:1;stroke:none;display:inline" />
    <path
       d="m 9.010725,8.4999999 29.497723,0 c 1.721985,0 2.496922,-0.2865505 2.991552,1 L 44.501734,17.5 l 0,25.673912 c 0,1.553304 0.10293,1.315976 -1.619063,1.315976 l -37.7653422,0 c -1.7219924,0 -1.6190635,0.237328 -1.6190635,-1.315976 L 3.4982653,17.5 6.5,9.4999999 c 0.4808316,-1.2605622 0.7887325,-1 2.510725,-1 z"
       id="path2488"
       style="fill:url(#linearGradient3406);fill-opacity:1;fill-rule:nonzero;stroke:url(#linearGradient3408);stroke-width:0.99420077;stroke-linecap:round;stroke-linejoin:miter;stroke-miterlimit:4;stroke-opacity:1;stroke-dasharray:none;stroke-dashoffset:0;marker:none;visibility:visible;display:block;overflow:visible" />
    <path
       d="m 9.948194,9.5129458 27.652872,0 c 1.614293,0 2.61338,0.5565362 3.289521,2.0860282 l 2.32894,6.419721 0,23.144557 c 0,1.460676 -0.818759,2.196085 -2.433056,2.196085 l -33.7332031,0 c -1.6142934,0 -2.2727761,-0.808827 -2.2727761,-2.269504 l 0,-23.071138 2.2538109,-6.55736 C 7.4850649,10.275943 8.3338968,9.5129458 9.948194,9.5129458 z"
       id="path2490"
       style="opacity:0.50549454;fill:none;stroke:url(#linearGradient3400);stroke-width:0.74211526;stroke-linecap:butt;stroke-linejoin:miter;stroke-miterlimit:4;stroke-opacity:1;stroke-dasharray:none;stroke-dashoffset:0;marker:none;visibility:visible;display:block;overflow:visible" />
    <path
       d="m 22,7.9999999 c 1.333333,0 2.666667,0 4,0 C 26,12.666667 26,17.333333 26,22 25.606271,22 25.212542,21.228916 24.818813,21.228916 24.415688,21.228916 24.012563,22 23.609438,22 23.284909,22 22.960381,21.325301 22.635853,21.325301 22.423902,21.325301 22.211951,22 22,22 22,17.333333 22,12.666667 22,7.9999999 z"
       id="rect3326"
       style="opacity:0.3;fill:url(#linearGradient3397);fill-opacity:1;fill-rule:nonzero;stroke:none;stroke-width:1;marker:none;visibility:visible;display:inline;overflow:visible;enable-background:accumulate" />
    <path
       d="m 43.500001,43.499998 -39.0000009,0 0,-26 39.0000009,0 z"
       id="rect6741-1"
       style="opacity:0.3;fill:none;stroke:url(#linearGradient3033);stroke-width:1;stroke-linecap:round;stroke-linejoin:round;stroke-miterlimit:4;stroke-opacity:1;stroke-dasharray:none;stroke-dashoffset:0" />
    <path
       d="m 4.5000001,17.5 3.2771084,-8.0000001 32.4457845,0 L 43.500001,17.5"
       id="rect6741-1-1"
       style="opacity:0.2;fill:none;stroke:url(#linearGradient3855);stroke-width:0.99999994;stroke-linecap:round;stroke-linejoin:round;stroke-miterlimit:4;stroke-opacity:1;stroke-dasharray:none;stroke-dashoffset:0" />
  </g>
</svg>

<svg xmlns="http://www.w3.org/2000/svg" xmlns:xlink="http://www.w3.org/1999/xlink" viewBox="0 0 48 48"><defs><linearGradient x1="24" y1="7.347" x2="24" y2="43" id="q" xlink:href="#a" gradientUnits="userSpaceOnUse" gradientTransform="matrix(1.05405 0 0 .21622 -1.297 8.31)"/><linearGradient id="a"><stop offset="0" stop-color="#fff"/><stop offset=".084" stop-color="#fff" stop-opacity=".235"/><stop offset=".951" stop-color="#fff" stop-opacity=".157"/><stop offset="1" stop-color="#fff" stop-opacity=".392"/></linearGradient><linearGradient x1="24" y1="5.564" x2="24" y2="43" id="p" xlink:href="#b" gradientUnits="userSpaceOnUse" gradientTransform="matrix(1.05405 0 0 .7027 -1.297 13.635)"/><linearGradient id="b"><stop offset="0" stop-color="#fff"/><stop offset=".036" stop-color="#fff" stop-opacity=".235"/><stop offset=".951" stop-color="#fff" stop-opacity=".157"/><stop offset="1" stop-color="#fff" stop-opacity=".392"/></linearGradient><linearGradient x1="26" y1="22" x2="26" y2="8" id="o" xlink:href="#c" gradientUnits="userSpaceOnUse"/><linearGradient id="c"><stop offset="0" stop-color="#fff"/><stop offset=".302" stop-color="#fff"/><stop offset=".344" stop-color="#fff" stop-opacity=".643"/><stop offset="1" stop-color="#fff" stop-opacity=".391"/></linearGradient><linearGradient x1="23.452" y1="30.555" x2="43.007" y2="45.934" id="n" xlink:href="#d" gradientUnits="userSpaceOnUse" gradientTransform="matrix(1.28223 0 0 1.1747 -6.07 -5.303)"/><linearGradient id="d"><stop offset="0" stop-color="#fff" stop-opacity="0"/><stop offset="1" stop-color="#fff" stop-opacity="0"/></linearGradient><linearGradient x1="24.823" y1="15.378" x2="24.997" y2="37.277" id="l" xlink:href="#e" gradientUnits="userSpaceOnUse" gradientTransform="matrix(1.28223 0 0 1.55726 -6.07 -15.29)"/><linearGradient id="e"><stop offset="0" stop-color="#dac196"/><stop offset=".239" stop-color="#c7ae8e"/><stop offset=".276" stop-color="#dac197"/><stop offset="1" stop-color="#b19974"/></linearGradient><linearGradient x1="15.464" y1="7.976" x2="15.464" y2="45.042" id="m" xlink:href="#f" gradientUnits="userSpaceOnUse"/><linearGradient id="f"><stop offset="0" stop-color="#c9af8b"/><stop offset=".239" stop-color="#ad8757"/><stop offset=".276" stop-color="#c2a57f"/><stop offset="1" stop-color="#9d7d53"/></linearGradient><radialGradient cx="5" cy="41.5" r="5" fx="5" fy="41.5" id="k" xlink:href="#g" gradientUnits="userSpaceOnUse" gradientTransform="matrix(.4012 0 0 1.2 41.994 -91.8)"/><linearGradient id="g"><stop offset="0"/><stop offset="1" stop-opacity="0"/></linearGradient><linearGradient x1="17.554" y1="46" x2="17.554" y2="35" id="j" xlink:href="#h" gradientUnits="userSpaceOnUse" gradientTransform="matrix(1.74414 0 0 1.0909 -16.93 -2.182)"/><linearGradient id="h"><stop offset="0" stop-opacity="0"/><stop offset=".5"/><stop offset="1" stop-opacity="0"/></linearGradient><radialGradient cx="5" cy="41.5" r="5" fx="5" fy="41.5" id="i" xlink:href="#g" gradientUnits="userSpaceOnUse" gradientTransform="matrix(.4012 0 0 1.2 -6.006 -91.8)"/></defs><path transform="scale(-1)" opacity=".4" fill="url(#i)" d="M-4-48h2v12h-2z"/><path opacity=".4" fill="url(#j)" d="M4 36h40.115v12H4z"/><path transform="scale(1 -1)" opacity=".4" fill="url(#k)" d="M44-48h2v12h-2z"/><path d="M9.01 8.5h29.5c1.722 0 2.497-.287 2.992 1l3.002 8v25.674c0 1.553.103 1.316-1.62 1.316H5.118c-1.722 0-1.62.237-1.62-1.316V17.5l3.003-8c.48-1.26.79-1 2.51-1z" fill="url(#l)" stroke="url(#m)" stroke-width=".994" stroke-linecap="round" display="block" overflow="visible"/><path d="M9.948 9.513H37.6c1.615 0 2.614.556 3.29 2.086l2.33 6.42v23.14c0 1.46-.82 2.196-2.434 2.196H7.053c-1.614 0-2.273-.81-2.273-2.27V18.02l2.254-6.56c.45-1.184 1.3-1.947 2.914-1.947z" opacity=".505" fill="none" stroke="url(#n)" stroke-width=".742" display="block" overflow="visible"/><path d="M22 8h4v14c-.394 0-.787-.77-1.18-.77-.404 0-.807.77-1.21.77-.325 0-.65-.675-.974-.675-.212 0-.424.675-.636.675V8z" opacity=".3" fill="url(#o)" overflow="visible"/><path d="M43.5 43.5h-39v-26h39z" opacity=".3" fill="none" stroke="url(#p)" stroke-linecap="round" stroke-linejoin="round"/><path d="M4.5 17.5l3.277-8h32.446l3.277 8" opacity=".2" fill="none" stroke="url(#q)" stroke-linecap="round" stroke-linejoin="round"/></svg>
